content/images/project/php-agent.svg

<svg width="36" height="36" viewBox="0 0 36 36" fill="none" xmlns="http://www.w3.org/2000/svg">
<rect width="36" height="36" rx="4" fill="#8892BF"/>
<path d="M3.72844 16.0043H8.84188C10.3427 16.0169 11.4303 16.4496 12.1046 17.3017C12.7788 18.1538 13.0013 19.3177 12.7724 20.7934C12.6834 21.4676 12.4862 22.129 12.1809 22.7777C11.8882 23.4264 11.4814 24.0114 10.9598 24.533C10.3236 25.1944 9.64324 25.6141 8.9182 25.7923C8.19316 25.9705 7.44256 26.0594 6.66676 26.0594H4.37716L3.65212 29.6846H1L3.72844 16.0043M5.9608 18.1794L4.816 23.9034C4.89232 23.916 4.96864 23.9225 5.04496 23.9225C5.13388 23.9225 5.22316 23.9225 5.31208 23.9225C6.5332 23.9351 7.55092 23.8145 8.36488 23.56C9.17884 23.2928 9.72604 22.3644 10.0058 20.7743C10.2347 19.4387 10.0058 18.669 9.31888 18.4656C8.6446 18.2622 7.79896 18.1668 6.78124 18.1794C6.6286 18.192 6.48244 18.1985 6.3424 18.1985C6.21532 18.1985 6.08176 18.1985 5.94172 18.1985L5.9608 18.1794" fill="#9CC5E9" fill-opacity="0.4"/>
<path d="M15.7934 12.36H18.4265L17.6823 16.0043H20.0483C21.3457 16.0298 22.3123 16.2969 22.9484 16.8056C23.5971 17.3143 23.7879 18.2813 23.5208 19.7058L22.2425 26.0594H19.5713L20.7924 19.992C20.9195 19.3559 20.8813 18.9044 20.6779 18.6373C20.4745 18.3702 20.0357 18.2366 19.3614 18.2366L17.2435 18.2175L15.6789 26.0594H13.0459L15.7934 12.36Z" fill="#9CC5E9" fill-opacity="0.4"/>
<path d="M26.3483 16.0043H31.4618C32.9626 16.0169 34.0502 16.4496 34.7244 17.3017C35.3987 18.1538 35.6212 19.3177 35.3922 20.7934C35.3033 21.4676 35.106 22.129 34.8008 22.7777C34.5081 23.4264 34.1013 24.0114 33.5796 24.533C32.9435 25.1944 32.2631 25.6141 31.5381 25.7923C30.813 25.9705 30.0624 26.0594 29.2866 26.0594H26.997L26.272 29.6846H23.6199L26.3483 16.0043M28.5807 18.1794L27.4359 23.9034C27.5122 23.916 27.5885 23.9225 27.6648 23.9225C27.7538 23.9225 27.843 23.9225 27.932 23.9225C29.1531 23.9351 30.1708 23.8145 30.9848 23.56C31.7987 23.2928 32.3459 22.3644 32.6256 20.7743C32.8546 19.4387 32.6256 18.669 31.9388 18.4656C31.2645 18.2622 30.4188 18.1668 29.4011 18.1794C29.2485 18.192 29.1023 18.1985 28.9623 18.1985C28.8352 18.1985 28.7016 18.1985 28.5616 18.1985L28.5807 18.1794" fill="#9CC5E9" fill-opacity="0.4"/>
<path d="M15.1378 8.39476C15.5515 8.30296 15.9796 8.2452 16.4088 8.2222C20.7128 7.99151 24.3826 11.2786 24.6021 15.5609C24.6772 17.0266 24.3214 18.4812 23.6067 19.7462C26.6457 18.6692 28.7057 15.7343 28.5342 12.3872C28.3254 8.31238 24.8264 5.17839 20.731 5.3979C18.4918 5.51792 16.4442 6.6462 15.1378 8.39476Z" fill="white"/>
</svg>

<svg xmlns="http://www.w3.org/2000/svg" width="36" height="36" fill="none" viewBox="0 0 36 36"><rect width="36" height="36" fill="#8892BF" rx="4"/><path fill="#9CC5E9" fill-opacity=".4" d="M3.728 16.004h5.114c1.5.013 2.588.446 3.263 1.298.674.852.896 2.016.667 3.491a6.7 6.7 0 0 1-.591 1.985 5.9 5.9 0 0 1-1.221 1.755c-.636.661-1.317 1.081-2.042 1.26a9.4 9.4 0 0 1-2.251.266h-2.29l-.725 3.626H1l2.728-13.68m2.233 2.174-1.145 5.724c.076.013.153.02.229.02h.267c1.221.012 2.239-.108 3.053-.363.814-.267 1.361-1.196 1.64-2.786.23-1.335 0-2.105-.686-2.308-.674-.204-1.52-.3-2.538-.287-.152.013-.299.02-.439.02h-.4l.019-.02m9.832-5.819h2.634l-.745 3.644h2.366c1.298.026 2.264.293 2.9.802.65.508.84 1.475.573 2.9l-1.279 6.353h-2.67l1.22-6.067c.127-.636.09-1.088-.114-1.355-.204-.267-.642-.4-1.317-.4l-2.117-.02-1.565 7.842h-2.633l2.747-13.699Zm10.555 3.644h5.114c1.5.013 2.588.446 3.262 1.298.675.852.897 2.016.668 3.491a6.7 6.7 0 0 1-.591 1.985 5.898 5.898 0 0 1-1.221 1.755c-.636.661-1.317 1.081-2.042 1.26a9.4 9.4 0 0 1-2.251.266h-2.29l-.725 3.626H23.62l2.728-13.68m2.233 2.174-1.145 5.724c.076.013.152.02.229.02h.267c1.221.012 2.239-.108 3.053-.363.814-.267 1.36-1.196 1.64-2.786.23-1.335 0-2.105-.686-2.308-.674-.204-1.52-.3-2.538-.287a5.34 5.34 0 0 1-.439.02h-.4l.019-.02"/><path fill="#fff" d="M15.138 8.395c.414-.092.842-.15 1.27-.173 4.305-.23 7.975 3.057 8.194 7.339a7.724 7.724 0 0 1-.995 4.185 7.388 7.388 0 0 0 4.927-7.359c-.209-4.075-3.708-7.209-7.803-6.99a7.506 7.506 0 0 0-5.593 2.998Z"/></svg>
